packages/core/assets/Icons/chart_bar_stacked.svg

<svg viewBox="0 0 20 20" fill="none" xmlns="http://www.w3.org/2000/svg">
<path d="M4.16683 16.6666C3.93072 16.6666 3.7328 16.5868 3.57308 16.4271C3.41336 16.2673 3.3335 16.0694 3.3335 15.8333V8.33331C3.3335 8.0972 3.41336 7.89929 3.57308 7.73956C3.7328 7.57984 3.93072 7.49998 4.16683 7.49998H5.8335C6.06961 7.49998 6.26752 7.57984 6.42725 7.73956C6.58697 7.89929 6.66683 8.0972 6.66683 8.33331V15.8333C6.66683 16.0694 6.58697 16.2673 6.42725 16.4271C6.26752 16.5868 6.06961 16.6666 5.8335 16.6666H4.16683ZM4.16683 6.66665C3.93072 6.66665 3.7328 6.58679 3.57308 6.42706C3.41336 6.26734 3.3335 6.06942 3.3335 5.83331V4.16665C3.3335 3.93054 3.41336 3.73262 3.57308 3.5729C3.7328 3.41317 3.93072 3.33331 4.16683 3.33331H5.8335C6.06961 3.33331 6.26752 3.41317 6.42725 3.5729C6.58697 3.73262 6.66683 3.93054 6.66683 4.16665V5.83331C6.66683 6.06942 6.58697 6.26734 6.42725 6.42706C6.26752 6.58679 6.06961 6.66665 5.8335 6.66665H4.16683ZM9.16683 16.6666C8.93072 16.6666 8.7328 16.5868 8.57308 16.4271C8.41336 16.2673 8.3335 16.0694 8.3335 15.8333V10.8333C8.3335 10.5972 8.41336 10.3993 8.57308 10.2396C8.7328 10.0798 8.93072 9.99998 9.16683 9.99998H10.8335C11.0696 9.99998 11.2675 10.0798 11.4272 10.2396C11.587 10.3993 11.6668 10.5972 11.6668 10.8333V15.8333C11.6668 16.0694 11.587 16.2673 11.4272 16.4271C11.2675 16.5868 11.0696 16.6666 10.8335 16.6666H9.16683ZM9.16683 9.16665C8.93072 9.16665 8.7328 9.08679 8.57308 8.92706C8.41336 8.76734 8.3335 8.56942 8.3335 8.33331V6.66665C8.3335 6.43054 8.41336 6.23262 8.57308 6.0729C8.7328 5.91317 8.93072 5.83331 9.16683 5.83331H10.8335C11.0696 5.83331 11.2675 5.91317 11.4272 6.0729C11.587 6.23262 11.6668 6.43054 11.6668 6.66665V8.33331C11.6668 8.56942 11.587 8.76734 11.4272 8.92706C11.2675 9.08679 11.0696 9.16665 10.8335 9.16665H9.16683ZM14.1668 16.6666C13.9307 16.6666 13.7328 16.5868 13.5731 16.4271C13.4134 16.2673 13.3335 16.0694 13.3335 15.8333V13.3333C13.3335 13.0972 13.4134 12.8993 13.5731 12.7396C13.7328 12.5798 13.9307 12.5 14.1668 12.5H15.8335C16.0696 12.5 16.2675 12.5798 16.4272 12.7396C16.587 12.8993 16.6668 13.0972 16.6668 13.3333V15.8333C16.6668 16.0694 16.587 16.2673 16.4272 16.4271C16.2675 16.5868 16.0696 16.6666 15.8335 16.6666H14.1668ZM14.1668 11.6666C13.9307 11.6666 13.7328 11.5868 13.5731 11.4271C13.4134 11.2673 13.3335 11.0694 13.3335 10.8333V9.16665C13.3335 8.93054 13.4134 8.73262 13.5731 8.5729C13.7328 8.41317 13.9307 8.33331 14.1668 8.33331H15.8335C16.0696 8.33331 16.2675 8.41317 16.4272 8.5729C16.587 8.73262 16.6668 8.93054 16.6668 9.16665V10.8333C16.6668 11.0694 16.587 11.2673 16.4272 11.4271C16.2675 11.5868 16.0696 11.6666 15.8335 11.6666H14.1668Z" fill="currentColor"/>
</svg>

<svg xmlns="http://www.w3.org/2000/svg" width="20" height="20" fill="none" viewBox="0 0 20 20">
  <path fill="#201F1F" d="M4.167 16.667a.806.806 0 0 1-.594-.24.807.807 0 0 1-.24-.594v-7.5c0-.236.08-.434.24-.593.16-.16.358-.24.594-.24h1.667c.236 0 .434.08.593.24.16.16.24.357.24.593v7.5c0 .236-.08.434-.24.594a.806.806 0 0 1-.593.24H4.167Zm0-10a.806.806 0 0 1-.594-.24.806.806 0 0 1-.24-.594V4.167c0-.236.08-.434.24-.594.16-.16.358-.24.594-.24h1.667c.236 0 .434.08.593.24.16.16.24.358.24.594v1.666c0 .236-.08.434-.24.594a.806.806 0 0 1-.593.24H4.167Zm5 10a.806.806 0 0 1-.594-.24.807.807 0 0 1-.24-.594v-5c0-.236.08-.434.24-.593.16-.16.358-.24.594-.24h1.667c.236 0 .434.08.593.24.16.16.24.357.24.593v5c0 .236-.08.434-.24.594a.806.806 0 0 1-.593.24H9.167Zm0-7.5a.806.806 0 0 1-.594-.24.806.806 0 0 1-.24-.594V6.667c0-.236.08-.434.24-.594.16-.16.358-.24.594-.24h1.667c.236 0 .434.08.593.24.16.16.24.358.24.594v1.666c0 .236-.08.434-.24.594a.806.806 0 0 1-.593.24H9.167Zm5 7.5a.806.806 0 0 1-.594-.24.807.807 0 0 1-.24-.594v-2.5c0-.236.08-.434.24-.593.16-.16.358-.24.594-.24h1.667c.236 0 .433.08.593.24.16.16.24.357.24.593v2.5c0 .236-.08.434-.24.594a.806.806 0 0 1-.593.24h-1.667Zm0-5a.806.806 0 0 1-.594-.24.807.807 0 0 1-.24-.594V9.167c0-.236.08-.434.24-.594.16-.16.358-.24.594-.24h1.667c.236 0 .433.08.593.24.16.16.24.358.24.594v1.666c0 .236-.08.434-.24.594a.806.806 0 0 1-.593.24h-1.667Z"/>
</svg>
